X:408
T:Lady Charlotte Murray
T:Donald Dow
R:Strathspey
B:The Athole Collection
M:C
L:1/8
K:F
d|c>F d/c/B/A/ c<F F>d|c<Af<A c<G G>d|c<F d/c/B/A/ c<A A>f|
e>d e<c ~f2f:|
d|c<A f>A c>fA>f|c<A f>A c<G G>d|c<A f>A c>fA>f|e>d e<c f2 f>d|
c<A f>A c<fA<f|c<A f>A c<G G>B|A>GA>F A<c c>f|e>de>c ~f2f||

